X:1101501
T:[ID 11-15a]
T:Bezeichnung standardisiert: Largo
T:Largo
C:Urheber unbekannt
C:Datum in der hier transkribierten schriftlichen Quelle: vermutlich um 1800
O:Deutschland; Westfalen; Dinker
S:"Tanzsammlung Dahlhoff" Staatsbibliothek zu Berlin, Musiksammlung, Mus. ms. 40182, Buch 11, 015/1, PDF Nr: 1357
S:Scan online: http://resolver.staatsbibliothek-berlin.de/SBB0000969000001357
F:http://simonwascher.info/TradArchiv/Dahlhoff/ file-version 2017-11-21
Z:Erfassung in Capella Richmud Rollenbeck, Konversion nach MusicXML Joergen Lang, Konversion nach abc und abc Lektorat Simon Wascher
L:1/8
M:3/4
K:G
d2g2e2 | d2c2B2 | AcBedF | {F2}G4A2 | BAB2^c2 | dfegfa | Bed2^c2 {Bc}| d4z2 ::
g2d2e2 | =f4{ef}e2 | d2c2B2 | {c}B2A2z2 | GDG2A2 | B4c2 | dBe2f2 | gbac'bg | eag2f2{ga} | g4z2 :|

